X:1
T:BWV 0782
T:Invention 11    (A = 415 Hz)
T:Johann Sebastian Bach
%%score { 1 | 2 }
L:1/8
Q:1/4=90
M:4/4
K:Bb
V:1 treble nm="Harp"
V:2 bass 
V:1
 z/ D/=E/^F/ G/A/B/G/ A/G/F/E/ D/c/B/A/ | G/F/=E/D/ C/B/A/G/ d/c/B/d/ c/B/A/c/ | %2
 B/A/G/A/ B/c/d/=e/ fd z d | e/d/c/d/ e=e f/e/d/e/ f^f | gd/c/ d/e/f/d/ e/d/c/B/ A/g/f/e/ | %5
 d/c/d/=e/ f/g/a/f/ g/f/e/d/ ^c/b/a/g/ | g/4f/4g/4f/4g/4f/4g/4f/4 g/4f/4g/a/b/ ^c/d/=e/d/ c=c | %7
 =B/c/d/c/ B_B Ad/4c/4d3/2d/4^c/4d/4c/4 | Af/4=e/4f3/2 g/4f/4 g/4f/4 A a2 g- | %9
 gg/4f/4=e/ f/d/e/^c/ d/4c/4de/ d/4e/4f/4e/4f/4e/4d/ | dc/B/ A/B/c/A/ B/A/G/F/ =E/d/c/B/ | %11
 A/G/A/=B/ c/4B/4c3/2- c/A/B/c/ d/4c/4d3/2- | d/G/A/=B/ c/d/e/c/ d/c/B/A/ G/f/e/d/ | %13
 c/B/_A/G/ F/e/d/c/ g/f/e/g/ f/e/d/f/ | e/d/c/d/ e/f/g/_a/ =Bd z F | %15
 Ec Dc/4=B/4A/4B/4 c/G/c/d/ e/4d/4e3/2- | e/c/d/e/ f/4e/4f3/2- ff/4e/4d/ g/4f/4gf/ | %17
 e/d/c/B/ A/G/^F/A/ E/D/=E/F/ G/A/B/G/ | A/G/^F/=E/ D/c/B/A/ G/=F/E/D/ C/B/A/G/ | %19
 d/c/B/d/ c/B/A/c/ B/A/G/B/ A/G/^F/A/ | G/A/B/c/ d/=e/^f/g/ a/f/g/a/ d2- | %21
 d/c/_e/d/ c/B/A/c/ ^F/A/B/A/ G/=F/E/G/ | ^C/G/A/B/ D/A/A/4G/4^F/ G/4F/4!fermata!G3/2- G2 |] %23
V:2
 G,,2 z G, ^F,/G,/A,/G,/ F,=F, | =E,/F,/G,/F,/ E,_E, D,G,/4F,/4G,3/2 ^F, | %2
 G,/D,/=E,/^F,/ G,/A,/B,/G,/ A,/G,/=F,/E,/ D,/C/B,/A,/ | %3
 G,/F,/E,/D,/ C,/B,/A,/G,/ D/C/B,/D/ C/B,/A,/C/ | B,/A,/G,/A,/ B,/C/D/B,/ CE, F,/4E,/4F,/F,, | %5
 B,,B, A,D B,G, A,/4G,/4A,/A,, | D,,/A,,/=B,,/^C,/ D,/=E,/F,/D,/ E,/D,/C,/B,,/ A,,/G,/F,/E,/ | %7
 D,/C,/=B,,/A,,/ G,,/F,/=E,/D,/ A,/G,/F,/A,/ G,/F,/E,/G,/ | %8
 F,/=E,/D,/F,/ E,/D,/^C,/E,/ D,/E,/F,/D,/ G,/A,/B,/G,/ | %9
 ^C/A,/=B,/C/ D/F,/G,/A,/ _B,/=E,/F,/G,/ A,A,, | D,2 z/ D,/=E,/F,/ G,/A,/B,/G,/ C/4B,/4C/C, | %11
 F,E,/D,/ E,/F,/G,/E,/ F,/E,/D,/C,/ =B,,/_A,/G,/F,/ | E,/D,/C,/D,/ E,/F,/G,/_A,/ =B,,G,, z G,, | %13
 _A,,/G,,/F,,/G,,/ A,,=A,, B,,/A,,/G,,/A,,/ B,,=B,, | %14
 C,/G,,/A,,/=B,,/ C,/D,/E,/C,/ D,/C,/B,,/A,,/ G,,/F,/E,/D,/ | %15
 C,/B,,/_A,,/G,,/ F,,/E,,/F,,/G,,/ C,,/D,/E,/F,/ G,/_A,/_B,/G,/ | %16
 _A,/G,/F,/F,/ D,/C/B,/A,/ G,/F,/G,/=A,/ B,/C/D/B,/ | C/B,/A,/G,/ ^F,/E/D/C/ B,2- B,/C/D/_E/ | %18
 ^F,/G,/A,/G,/ F,=F, =E,/F,/G,/F,/ E,_E, | D,G,/4F,/4G,3/2 ^F, D,B,/4A,/4B,3/2 A, | %20
 D,D/4C/4D3/2 C- C/E/D/C/ B,/A,/G,/B,/ | E,2- E,/D,/C,/E,/ A,,D,/4C,/4D,/- D,C, | %22
 B,,A,,/G,,/ D,/4C,/4D,/D,, !fermata!G,,4 |] %23

